X:1
T:Stark, 87.87 D
T:Stark, 87.87 D
T:Edward Josef Stark (1863-1918)
T:Public Domain Courtesy of the Cyber Hymnal™
C:Edward Josef Stark (1863-1918)
Z:Public Domain
Z:Courtesy of the Cyber Hymnal™
%%score ( 1 2 ) ( 3 4 )
L:1/8
Q:1/4=130
M:3/4
K:A
V:1 treble 
V:2 treble 
V:3 bass 
V:4 bass 
V:1
 [EA]4 [DG]2 | [CA]4 E2 | (F2 G2) [DB]2 | [CA]4 [CE]2 | (E2 A2) [EG]2 | [EG]2 [DF]2 [EF]2 | %6
 (F2 G2) [FA]2 | [EG]6 | [CA]4 [DG]2 | [EA]4 [CE]2 | (F2 G2) [DB]2 | [CA]4 [CE]2 | [EA]4 [EG]2 | %13
 (F2 c2) [FB]2 | (A2 G2) [DB]2 | [CA]4 z2 | [EA]4 [EB]2 | [Ec]4 [Ec]2 | (c2 d2) [Ec]2 | %19
 ([DB]4 [CA]2) | [CA]4 [^EG]2 | [FA]4 [FA]2 | [FB]4 [FB]2 | [^Ec]6 | [EA]4 [EG]2 | [EA]4 E2 | %26
 F2 G2 [DB]2 | ([CA]4 [CE]2) | (E2 A2) [^EG]2 | F4 [FB]2 | [EA]4 [EG]2 | [EA]6 |] %32
V:2
 x6 | x4 E2 | D4 x2 | x6 | E4 x2 | x6 | ^D4 x2 | x6 | x6 | x6 | D4 x2 | x6 | x6 | F4 x2 | E4 x2 | %15
 x6 | x6 | x6 | E4 x2 | x6 | x6 | x6 | x6 | x6 | x6 | x4 E2 | D4 x2 | x6 | ^E4 x2 | F4 x2 | x6 | %31
 x6 |] %32
V:3
 [A,C]4 [E,B,]2 | [F,A,]4 [C,A,]2 | ([D,A,]2 [B,,D]2) [E,G,]2 | [A,,A,]4 [A,,A,]2 | %4
 [C,A,]4 [C,A,]2 | [D,A,]4 [C,^A,]2 | [B,,B,]4 [^D,B,]2 | [E,B,]6 | [F,A,]4 [E,B,]2 | %9
 [C,A,]4 [A,,A,]2 | ([D,A,]2 [B,,D]2) [E,G,]2 | [A,,A,]4 [A,,A,]2 | [C,A,]4 [C,A,]2 | %13
 (A,2 ^A,2) [D,B,]2 | (C2 B,2) [E,G,]2 | [A,,A,]4 z2 | [C,A,]4 [E,G,]2 | A,4 A,2 | %18
 A,2 [G,B,]2 A,2 | ([E,G,]4 [F,A,]2) | [F,A,]4 [C,C]2 | [F,C]4 [F,C]2 | (B,2 A,2) [D,G,]2 | %23
 [C,G,]6 | [C,A,]4 [B,,D]2 | [A,,C]4 [C,A,]2 | [D,A,]2 [B,,D]2 [E,G,]2 | ([A,,A,]4 [A,,A,]2) | %28
 [C,A,]4 [C,B,]2 | [D,B,]4 [D,D]2 | [E,C]4 [E,B,]2 | [A,C]6 |] %32
V:4
 x6 | x6 | x6 | x6 | x6 | x6 | x6 | x6 | x6 | x6 | x6 | x6 | x6 | D,4 x2 | E,4 x2 | x6 | x6 | %17
 A,4 A,2 | (A,2 A,2) x2 | x6 | x6 | x6 | D,4 x2 | x6 | x6 | x6 | x6 | x6 | x6 | x6 | x6 | x6 |] %32

